!! 00000] TT[00
!! NN
!!!OTL: Ma ju ju
!!!ARE: Asia, China,ˇNeimeng, Hetao, innere)
!! Ethnic Group: Han
!! IV, 369, 2)
!!!SCT: C0422
!!!YEM: Copyright 1995, estate of Helmut Schaffrath.
**kern
*ICvox
*Ivox
*M2/4
*k[b-]
*F:
{4cc
4dd
=1
4gg
8dd
8cc
=2
[2a
=3
4a]
16g
8.a}
=4
{8a
4f
8d
=5
4d
8a
8f
=6
2d}
=7
{4cc
4dd
=8
4gg
8dd
8cc
=9
[2a
=10
4a]
16g
8.a}
=11
{8a
4f
8d
=12
4d
8cc
8f
=13
2g}
==
!!!AGN: Shange, Pashan diao. NannÅ siqing
!! Han- Melodie, die mongolisch beeinflusst wurde.
!!!ONB: ESAC (Essen Associative Code) Database: CHINA
!!!AMT: simple duple
!!!AIN: vox
!!!EED: Helmut Schaffrath
!!!EEV: 1.0
*-
!!!ONB: Tied note syntax fixed by Craig Sapp, 2004/05/03/
